X:53
T:Jig y Pendref - The Village Jig
M:6/8
L:1/8
Q:120
C:Trad.
R:Jig
K:D
F2 F G2 G | AFD E3 | D2 D E2 E | FGF E2 D|
| F2 F G2 G | AFD E3 | D2 D A2 F | EFE D3 :|
||: D2 A AGA | d3 A3 | D2 A AGA | AGF E2 D | D2 A AGA|
| d3 A3 | dcB AGF | EFE D3 :||
